X:496
T:Lucky Scap
T:Lucky Scaup
C:Jimmy Shand
S:Parlophone F3413
Z:Nigel Gatherer
M:4/4
L:1/8
K:D
z2 | D2 DF E2 EG | F2 FA G2 GB | A2 f2 gfed | f2 e2 e2 f2 |
     D2 DF E2 EG | F2 FA G2 GB | A2 a2 gfed | f2 d2 d2   :|
fg | a2 d2 b2 d2 | a2 gf g2 fg | a2 d2 bagf | g2 e2 e2 fg |
     a2 d2 b2 d2 | a2 gf g2 fe | A2 a2 gfed | f2 d2 d2 fg |
     a2 d2 b2 d2 | a2 gf g2 fg | a2 d2 bagf | g2 e2 e2 f2 |
     D2 DF E2 EG | F2 FA G2 GB | A2 a2 gfed | f2 d2 d2   |]
<end>
<start>
